!!!OTL: 710. Das Kanapeelied. / a) Text vom Jahre 1740.
!!!ARE: Europa, Mitteleuropa, Deutschland, Thueringen
!!!SCT: B0710
!!!TXL: @@DE
!!!YEM: Copyright 1995, estate of Helmut Schaffrath.
**kern	**text
*ICvox	*
*Ivox	*
*clefG2	*
*M2/4	*
*k[b-e-]	*
*B-:	*
!LO:TX:a:t=Ʒiemlich raſch.	!
{8f	Das
=1	=1
4b-	Ka-
8aL	-na-
8gJ	.
=2	=2
4f	-pee
4f	iſt
=3	=3
4g	mein
4a	Ver-
=4	=4
8b-L	-gnü-
8fJ	.
8f}	-gen,
{8f	drauf
=5	=5
8gL	ich
8fJ	.
8e-L	mit
8dJ	.
=6	=6
8gL	was
8fJ	.
8e-L	ʒu
8dJ	.
=7	=7
4c	Gu-
4f	-te
=8	=8
4f	thu.
8r}	.
{8f	Darauf
=9	=9
4b-	kann
8aL	ich
8gJ	.
=10	=10
4f	recht
4f	vergnü-
=11	=11
4g	.
4a	-get
=12	=12
8b-L	lie-
8fJ	.
8f}	-gen
{8f	in
=13	=13
8gL	mei-
8fJ	.
8e-L	-ner
8dJ	.
=14	=14
8gL	all-
8fJ	.
8e-L	-ʒu
8dJ	.
=15	=15
4c	ſanf-
4f	-ten
=16	=16
4f	Ruh'!
8r}	.
{8f	Thut
=17	=17
8d	mir's
8f	in
8f	al-
8f	-len
=18	=18
8g	Gliedern
8f	.
8f}	weh,
{8f	ſo
=19	=19
8d	leg'
8f	ich
8f	mich
8f	auf's
=20	=20
8g	Ka-
8f	-na-
8f}	-pee,
{8f	ſo
=21	=21
4b-	leg'
4cc	ich
=22	=22
4dd	mich
4b-	auf's
=23	=23
4cc	Ka-
4a	-na-
=24	=24
4b-	-pee.
8r}	.
==	==
!!!AGN: Scherz - Lied
!!!GTL: Scherzlieder und Gemischtes
!!!ONB: ESAC (Essen Associative Code) Database: BOEHME
!!!AMT: simple duple
!!!AIN: vox
!!!EED: Helmut Schaffrath
!!!EEV: 1.0
!!Mel. mündlich aus Thüringen, um 1840; faſt ebenſo aus Weißenfels 1850, in Erks Nachlaß.
!!!URL-scan: https://archive.org/details/BoehmeVtLieder1895/page/n557/mode/2up
!!!ENC: Anna Maria Matuszewska
!!!EEV: 2024/17/07
*-	*-
